app/images/icons/gear.svg

<svg width="24" height="24" viewBox="0 0 24 24" fill="none" xmlns="http://www.w3.org/2000/svg">
<path d="M19.1401 12.94C19.1801 12.64 19.2001 12.33 19.2001 12C19.2001 11.68 19.1801 11.36 19.1301 11.06L21.1601 9.48C21.3401 9.34 21.3901 9.07 21.2801 8.87L19.3601 5.55C19.2401 5.33 18.9901 5.26 18.7701 5.33L16.3801 6.29C15.8801 5.91 15.3501 5.59 14.7601 5.35L14.4001 2.81C14.3601 2.57 14.1601 2.4 13.9201 2.4H10.0801C9.84011 2.4 9.65011 2.57 9.61011 2.81L9.25011 5.35C8.66011 5.59 8.12011 5.92 7.63011 6.29L5.24011 5.33C5.02011 5.25 4.77011 5.33 4.65011 5.55L2.74011 8.87C2.62011 9.08 2.66011 9.34 2.86011 9.48L4.89011 11.06C4.84011 11.36 4.80011 11.69 4.80011 12C4.80011 12.31 4.82011 12.64 4.87011 12.94L2.84011 14.52C2.66011 14.66 2.61011 14.93 2.72011 15.13L4.64011 18.45C4.76011 18.67 5.01011 18.74 5.23011 18.67L7.62011 17.71C8.12011 18.09 8.65011 18.41 9.24011 18.65L9.60011 21.19C9.65011 21.43 9.84011 21.6 10.0801 21.6H13.9201C14.1601 21.6 14.3601 21.43 14.3901 21.19L14.7501 18.65C15.3401 18.41 15.8801 18.09 16.3701 17.71L18.7601 18.67C18.9801 18.75 19.2301 18.67 19.3501 18.45L21.2701 15.13C21.3901 14.91 21.3401 14.66 21.1501 14.52L19.1401 12.94ZM12.0001 15.6C10.0201 15.6 8.40011 13.98 8.40011 12C8.40011 10.02 10.0201 8.4 12.0001 8.4C13.9801 8.4 15.6001 10.02 15.6001 12C15.6001 13.98 13.9801 15.6 12.0001 15.6Z" fill="black"/>
</svg>

<svg width="24" height="24" xmlns="http://www.w3.org/2000/svg">
  <path d="M19.14 12.94a7.07 7.07 0 0 0-.01-1.88l2.03-1.58a.5.5 0 0 0 .12-.61l-1.92-3.32a.49.49 0 0 0-.59-.22l-2.39.96c-.5-.38-1.03-.7-1.62-.94l-.36-2.54a.48.48 0 0 0-.48-.41h-3.84a.47.47 0 0 0-.47.41l-.36 2.54c-.59.24-1.13.57-1.62.94l-2.39-.96a.48.48 0 0 0-.59.22L2.74 8.87c-.12.21-.08.47.12.61l2.03 1.58a5.87 5.87 0 0 0-.02 1.88l-2.03 1.58a.5.5 0 0 0-.12.61l1.92 3.32c.12.22.37.29.59.22l2.39-.96c.5.38 1.03.7 1.62.94l.36 2.54a.5.5 0 0 0 .48.41h3.84c.24 0 .44-.17.47-.41l.36-2.54a6.86 6.86 0 0 0 1.62-.94l2.39.96c.22.08.47 0 .59-.22l1.92-3.32c.12-.22.07-.47-.12-.61l-2.01-1.58ZM12 15.6A3.61 3.61 0 0 1 8.4 12c0-1.98 1.62-3.6 3.6-3.6s3.6 1.62 3.6 3.6-1.62 3.6-3.6 3.6Z" fill="#000" />
</svg>
